third_party/noto/noto_2/emoji_u1f68f.svg

<svg enable-background="new 0 0 128 128" version="1.1" viewBox="0 0 128 128" xmlns="http://www.w3.org/2000/svg"><line x1="42.98" x2="72.77" y1="21.58" y2="21.58" fill="none" stroke="#616161" stroke-miterlimit="10" stroke-width="3"/><line x1="42.98" x2="72.77" y1="36.82" y2="36.82" fill="none" stroke="#616161" stroke-miterlimit="10" stroke-width="3"/><path d="M64.79,124.32H53.3V7.49c0,0,1.07-2.49,5.75-2.49s5.75,2.49,5.75,2.49V124.32z" fill="#9E9E9E"/><path d="m61.84 5.37v94.39h-8.54v8.59c1.45 0.01 2.76 0.18 3.94 0.44 2.69 0.59 4.61 2.96 4.61 5.71v9.82h2.95v-116.83c-0.01 0-0.63-1.43-2.96-2.12z" fill="#757575"/><path d="m92.64 4.32c-13.39 0-24.22 10.83-24.22 24.31s10.83 24.22 24.22 24.22 24.22-10.83 24.22-24.22-10.83-24.31-24.22-24.31z" fill="#2196F3"/><path d="m103.22 13.37c-1.52-0.38-4.55-0.78-10.57-0.78s-9.05 0.39-10.57 0.78c-0.9 0.23-3.91 1.48-3.91 4.85v20.78c0 1.14 0.92 2.07 2.07 2.07h0.76v2.3c0 0.67 0.54 1.21 1.21 1.21h2.45c0.67 0 1.21-0.54 1.21-1.21v-2.3h13.54v2.3c0 0.67 0.54 1.21 1.21 1.21h2.45c0.67 0 1.21-0.54 1.21-1.21v-2.3h0.78c1.14 0 2.07-0.92 2.07-2.07v-20.78c0-3.23-3.01-4.63-3.91-4.85zm-17.11 1.65c0-0.51 0.41-0.92 0.92-0.92h11.22c0.51 0 0.92 0.41 0.92 0.92v1.63c0 0.51-0.41 0.92-0.92 0.92h-11.22c-0.51 0-0.92-0.41-0.92-0.92v-1.63zm0.19 21.89c0 0.34-0.28 0.62-0.62 0.62h-2.47c-1.16 0-2.11-0.94-2.11-2.11v-1.11c0-0.34 0.28-0.62 0.62-0.62h2.47c1.16 0 2.11 0.94 2.11 2.11v1.11zm17.88-1.49c0 1.16-0.94 2.11-2.11 2.11h-2.47c-0.34 0-0.62-0.28-0.62-0.62v-1.11c0-1.16 0.94-2.11 2.11-2.11h2.47c0.34 0 0.62 0.28 0.62 0.62v1.11zm0.56-9.03c0 1.34-2.9 3.68-12.1 3.68-9.21 0-12.1-2.17-12.1-3.68v-6.14c0-0.4 0.4-1.4 1.4-1.4h21.56c1 0 1.24 1.01 1.24 1.4v6.14z" fill="#fff"/><path d="m76.88 102.94h-35.67c-1.26 0-2.28-1.02-2.28-2.28v-41.2c0-1.26 1.02-2.28 2.28-2.28h35.66c1.26 0 2.28 1.02 2.28 2.28v41.2c0 1.26-1.02 2.28-2.27 2.28z" fill="#F5F5F5"/><polygon points="73.03 96.13 45.06 96.13 44.98 63.57 72.96 63.57" fill="#82AEC0" opacity=".8"/><line x1="58.97" x2="58.97" y1="63.57" y2="96.56" fill="none" stroke="#F5F5F5" stroke-miterlimit="10" stroke-width="2"/><rect x="44.98" y="63.57" width="12.99" height="2.72" fill="#616161"/><line x1="44.95" x2="73.14" y1="89.96" y2="89.96" fill="none" stroke="#F5F5F5" stroke-miterlimit="10"/><line x1="44.95" x2="73.14" y1="83.36" y2="83.36" fill="none" stroke="#F5F5F5" stroke-miterlimit="10"/><line x1="44.98" x2="72.96" y1="76.76" y2="76.76" fill="none" stroke="#F5F5F5" stroke-miterlimit="10"/><line x1="44.95" x2="72.96" y1="70.17" y2="70.17" fill="none" stroke="#F5F5F5" stroke-miterlimit="10"/><rect x="59.96" y="75.41" width="12.99" height="2.72" fill="#616161"/><rect x="45.08" y="82" width="12.95" height="2.72" fill="#616161"/><path d="m76.88 102.94h-35.67c-1.26 0-2.28-1.02-2.28-2.28v-41.2c0-1.26 1.02-2.28 2.28-2.28h35.66c1.26 0 2.28 1.02 2.28 2.28v41.2c0 1.26-1.02 2.28-2.27 2.28z" fill="none" stroke="#9E9E9E" stroke-linecap="round" stroke-linejoin="round" stroke-miterlimit="10" stroke-width="3"/><path d="m41.36 101.46c-1.55 0.14-1.55-0.88-1.55-1.16v-40.35c0-1.13 0.92-2.05 2.05-2.05h34.62c0.94 0 1.37 0.57 1.18 1.73 0 0-0.12-0.74-1.02-0.74h-34.77c-0.58 0-1.06 0.48-1.06 1.06v40.36c0 0.94 0.55 1.15 0.55 1.15z" fill="#757575"/><rect x="13.13" y="14.2" width="34.08" height="29.6" fill="#FFCA28"/><path d="m45.31 14.2c1.05 0 1.9 0.85 1.9 1.9v25.8c0 1.05-0.85 1.9-1.9 1.9h-30.27c-1.05 0-1.9-0.85-1.9-1.9v-25.8c0-1.05 0.85-1.9 1.9-1.9h30.27m0-2h-30.27c-2.15 0-3.9 1.75-3.9 3.9v25.8c0 2.15 1.75 3.9 3.9 3.9h30.27c2.15 0 3.9-1.75 3.9-3.9v-25.8c0.01-2.15-1.75-3.9-3.9-3.9z" fill="#9E9E9E"/><line x1="13.13" x2="47.22" y1="23.89" y2="23.89" fill="none" stroke="#FFFDE7" stroke-miterlimit="10" stroke-width="2"/><line x1="13.13" x2="47.22" y1="34.11" y2="34.11" fill="none" stroke="#FFFDE7" stroke-miterlimit="10" stroke-width="2"/><rect x="15.23" y="17.49" width="8.57" height="2.26" fill="#757575"/><rect x="15.23" y="38.22" width="6.46" height="2.26" fill="#757575"/><rect x="37.96" y="38.22" width="6.46" height="2.26" fill="#757575"/><rect x="37.96" y="17.49" width="6.46" height="2.26" fill="#757575"/><rect x="34.64" y="27.86" width="3.72" height="2.26" fill="#757575"/><rect x="40.7" y="27.86" width="3.72" height="2.26" fill="#757575"/><rect x="15.23" y="27.86" width="11.88" height="2.26" fill="#757575"/></svg>

<?xml version="1.0" encoding="utf-8"?>
<!-- Generator: Adobe Illustrator 25.2.3, SVG Export Plug-In . SVG Version: 6.00 Build 0)  -->
<svg version="1.1" id="Layer_3" xmlns="http://www.w3.org/2000/svg" xmlns:xlink="http://www.w3.org/1999/xlink" x="0px" y="0px"
	 viewBox="0 0 128 128" style="enable-background:new 0 0 128 128;" xml:space="preserve">
<g>
	<line style="fill:none;stroke:#616161;stroke-width:3;stroke-miterlimit:10;" x1="42.98" y1="21.58" x2="72.77" y2="21.58"/>
	<line style="fill:none;stroke:#616161;stroke-width:3;stroke-miterlimit:10;" x1="42.98" y1="36.82" x2="72.77" y2="36.82"/>
	<path style="fill:#9E9E9E;" d="M64.79,124.32H53.3V7.49c0,0,1.07-2.49,5.75-2.49s5.75,2.49,5.75,2.49V124.32z"/>
	<path style="fill:#757575;" d="M61.84,5.37v94.39H53.3v8.59c1.45,0.01,2.76,0.18,3.94,0.44c2.69,0.59,4.61,2.96,4.61,5.71v9.82
		h2.95v-11.67V99.76V7.49C64.79,7.49,64.17,6.06,61.84,5.37z"/>
	<path style="fill:#2196F3;" d="M92.64,4.32c-13.39,0-24.22,10.83-24.22,24.31s10.83,24.22,24.22,24.22s24.22-10.83,24.22-24.22
		S106.03,4.32,92.64,4.32z"/>
	<path style="fill:#FFFFFF;" d="M103.22,13.37c-1.52-0.38-4.55-0.78-10.57-0.78s-9.05,0.39-10.57,0.78
		c-0.9,0.23-3.91,1.48-3.91,4.85c0,3.37,0,20.78,0,20.78c0,1.14,0.92,2.07,2.07,2.07H81v2.3c0,0.67,0.54,1.21,1.21,1.21h2.45
		c0.67,0,1.21-0.54,1.21-1.21v-2.3h13.54v2.3c0,0.67,0.54,1.21,1.21,1.21h2.45c0.67,0,1.21-0.54,1.21-1.21v-2.3h0.78
		c1.14,0,2.07-0.92,2.07-2.07c0,0,0-17.55,0-20.78C107.13,14.99,104.12,13.59,103.22,13.37z M86.11,15.02
		c0-0.51,0.41-0.92,0.92-0.92h11.22c0.51,0,0.92,0.41,0.92,0.92v1.63c0,0.51-0.41,0.92-0.92,0.92H87.03c-0.51,0-0.92-0.41-0.92-0.92
		V15.02z M86.3,36.91c0,0.34-0.28,0.62-0.62,0.62h-2.47c-1.16,0-2.11-0.94-2.11-2.11v-1.11c0-0.34,0.28-0.62,0.62-0.62h2.47
		c1.16,0,2.11,0.94,2.11,2.11V36.91z M104.18,35.42c0,1.16-0.94,2.11-2.11,2.11H99.6c-0.34,0-0.62-0.28-0.62-0.62V35.8
		c0-1.16,0.94-2.11,2.11-2.11h2.47c0.34,0,0.62,0.28,0.62,0.62V35.42z M104.74,26.39c0,1.34-2.9,3.68-12.1,3.68
		c-9.21,0-12.1-2.17-12.1-3.68c0-1.51,0-6.14,0-6.14c0-0.4,0.4-1.4,1.4-1.4h21.56c1,0,1.24,1.01,1.24,1.4
		C104.74,20.25,104.74,25.05,104.74,26.39z"/>
	<g>
		<path style="fill:#F5F5F5;" d="M76.88,102.94H41.21c-1.26,0-2.28-1.02-2.28-2.28v-41.2c0-1.26,1.02-2.28,2.28-2.28h35.66
			c1.26,0,2.28,1.02,2.28,2.28v41.2C79.15,101.92,78.13,102.94,76.88,102.94z"/>
		<polygon style="opacity:0.8;fill:#82AEC0;" points="73.03,96.13 45.06,96.13 44.98,63.57 72.96,63.57 		"/>
		<line style="fill:none;stroke:#F5F5F5;stroke-width:2;stroke-miterlimit:10;" x1="58.97" y1="63.57" x2="58.97" y2="96.56"/>
		<rect x="44.98" y="63.57" style="fill:#616161;" width="12.99" height="2.72"/>
		<line style="fill:none;stroke:#F5F5F5;stroke-miterlimit:10;" x1="44.95" y1="89.96" x2="73.14" y2="89.96"/>
		<line style="fill:none;stroke:#F5F5F5;stroke-miterlimit:10;" x1="44.95" y1="83.36" x2="73.14" y2="83.36"/>
		<line style="fill:none;stroke:#F5F5F5;stroke-miterlimit:10;" x1="44.98" y1="76.76" x2="72.96" y2="76.76"/>
		<line style="fill:none;stroke:#F5F5F5;stroke-miterlimit:10;" x1="44.95" y1="70.17" x2="72.96" y2="70.17"/>
		<rect x="59.96" y="75.41" style="fill:#616161;" width="12.99" height="2.72"/>
		<rect x="45.08" y="82" style="fill:#616161;" width="12.95" height="2.72"/>
		<path style="fill:none;stroke:#9E9E9E;stroke-width:3;stroke-linecap:round;stroke-linejoin:round;stroke-miterlimit:10;" d="
			M76.88,102.94H41.21c-1.26,0-2.28-1.02-2.28-2.28v-41.2c0-1.26,1.02-2.28,2.28-2.28h35.66c1.26,0,2.28,1.02,2.28,2.28v41.2
			C79.15,101.92,78.13,102.94,76.88,102.94z"/>
		<path style="fill:#757575;" d="M41.36,101.46c-1.55,0.14-1.55-0.88-1.55-1.16V59.95c0-1.13,0.92-2.05,2.05-2.05h34.62
			c0.94,0,1.37,0.57,1.18,1.73c0,0-0.12-0.74-1.02-0.74H41.87c-0.58,0-1.06,0.48-1.06,1.06v40.36
			C40.81,101.25,41.36,101.46,41.36,101.46z"/>
	</g>
	<g>
		<rect x="13.13" y="14.2" style="fill:#FFCA28;" width="34.08" height="29.6"/>
		<g>
			<path style="fill:#9E9E9E;" d="M45.31,14.2c1.05,0,1.9,0.85,1.9,1.9v25.8c0,1.05-0.85,1.9-1.9,1.9H15.04
				c-1.05,0-1.9-0.85-1.9-1.9V16.1c0-1.05,0.85-1.9,1.9-1.9H45.31 M45.31,12.2H15.04c-2.15,0-3.9,1.75-3.9,3.9v25.8
				c0,2.15,1.75,3.9,3.9,3.9h30.27c2.15,0,3.9-1.75,3.9-3.9V16.1C49.22,13.95,47.46,12.2,45.31,12.2L45.31,12.2z"/>
		</g>
		<line style="fill:none;stroke:#FFFDE7;stroke-width:2;stroke-miterlimit:10;" x1="13.13" y1="23.89" x2="47.22" y2="23.89"/>
		<line style="fill:none;stroke:#FFFDE7;stroke-width:2;stroke-miterlimit:10;" x1="13.13" y1="34.11" x2="47.22" y2="34.11"/>
		<rect x="15.23" y="17.49" style="fill:#757575;" width="8.57" height="2.26"/>
		<rect x="15.23" y="38.22" style="fill:#757575;" width="6.46" height="2.26"/>
		<rect x="37.96" y="38.22" style="fill:#757575;" width="6.46" height="2.26"/>
		<rect x="37.96" y="17.49" style="fill:#757575;" width="6.46" height="2.26"/>
		<rect x="34.64" y="27.86" style="fill:#757575;" width="3.72" height="2.26"/>
		<rect x="40.7" y="27.86" style="fill:#757575;" width="3.72" height="2.26"/>
		<rect x="15.23" y="27.86" style="fill:#757575;" width="11.88" height="2.26"/>
	</g>
</g>
</svg>
